X: 9
T:Tordion (illustrating cadences)
M:6/4
L:1/4
R:Tordion
B:Thoinot Arbeau : Orchesography 1589
Z:Steve Mansfield February 2001
K:GDor
BAG czA | GFE FzD | BAG czA | GGA GzG ||
GGG Fzc | BBA BzB |
BBB AzA | GGA GzG :||

